X:1
T: Eight Men of Moidart
C:
R:Reel
Q: 232
K:F
M:4/4
L:1/8
fg|ag fe f2 c2|A4 F2 c2|AB c2 F2 c2|A2 G2 G2 fg|ag fe f2 c2|A4 F2 c2|AB c2 G2 c2|A2 F2 F2 fg|
ag fe f2 c2|A4 F2 c2|AB c2 F2 c2|A2 G2 G2 fg|ag fe f2 c2|A4 F2 c2|AB c2 G2 c2|A2 F2 F2 c2|
A2 F2 c2 F2|d2 F2 c2 F2|A2 F2 c2 F2|dc BA G2 c2|A2 F2 c2 F2|d2 F2 c2 F2|AB c2 G2 c2|A2 F2 F2 c2|
A2 F2 c2 F2|d2 F2 c2 F2|A2 F2 c2 F2|dc BA G2 c2|A2 F2 c2 F2|d2 F2 c2 F2|AB c2 G2 c2|A2 F2 F2||
